src/assets/icons/devices/satellite-dish.svg

<svg width="24" height="24" viewBox="0 0 24 24" xmlns="http://www.w3.org/2000/svg">
    <path
        d="M11.0604 2C17.1006 2 22 6.89748 22 12.9354C22 13.4548 21.582 13.8727 21.0623 13.8727C20.5427 13.8727 20.1246 13.4548 20.1246 12.9354C20.1246 7.93244 16.0652 3.87463 11.0604 3.87463C10.5407 3.87463 10.1227 3.45675 10.1227 2.93732C10.1227 2.41789 10.5407 2 11.0604 2ZM10.1227 6.68658C10.1227 6.16716 10.5407 5.74927 11.0604 5.74927C15.0299 5.74927 18.2493 8.96739 18.2493 12.9354C18.2493 13.4548 17.8312 13.8727 17.3116 13.8727C16.792 13.8727 16.3739 13.4548 16.3739 12.9354C16.3739 10.0023 13.9945 7.6239 11.0604 7.6239C10.5407 7.6239 10.1227 7.20601 10.1227 6.68658ZM3.02754 7.57313C3.37136 6.87405 4.29342 6.79594 4.84431 7.34661L9.86482 12.3652L11.1151 11.1154C11.6034 10.6272 12.3966 10.6272 12.8849 11.1154C13.3733 11.6036 13.3733 12.3964 12.8849 12.8846L11.6347 14.1343L16.6552 19.1529C17.2061 19.7036 17.124 20.6214 16.4286 20.969C15.0924 21.629 13.5921 22 12.002 22C6.47744 22 2 17.5243 2 12.002C2 10.4124 2.37117 8.90881 3.03145 7.57704L3.02754 7.57313Z" />
</svg>

<svg xmlns="http://www.w3.org/2000/svg" width="24" height="24" viewBox="0 0 24 24"><path d="M11.06 2C17.1 2 22 6.897 22 12.935c0 .52-.418.938-.938.938a.935.935 0 0 1-.937-.938c0-5.003-4.06-9.06-9.065-9.06a.935.935 0 0 1-.937-.938c0-.52.418-.937.937-.937m-.937 4.687c0-.52.418-.938.937-.938a7.19 7.19 0 0 1 7.19 7.186c0 .52-.419.938-.938.938a.935.935 0 0 1-.938-.938 5.313 5.313 0 0 0-5.314-5.311.935.935 0 0 1-.937-.937m-7.095.886c.343-.699 1.265-.777 1.816-.226l5.02 5.018 1.251-1.25a1.252 1.252 0 0 1 1.77 1.77l-1.25 1.25 5.02 5.018c.551.55.469 1.468-.226 1.816A9.96 9.96 0 0 1 12.002 22C6.477 22 2 17.524 2 12.002a9.94 9.94 0 0 1 1.031-4.425z"/></svg>
